X:1
T:E. J. Hopkins
T:Phillimore
%%score { ( 1 2 ) | ( 3 4 ) }
L:1/8
M:4/2
K:Bb
V:1 treble nm="Piano"
V:2 treble 
V:3 bass 
V:4 bass 
V:1
 B4 B4 B4 e4 | d6 c2 B8 | B4 G4 F4 B4 | d6 c2 c8 | B4 B4 B4 e4 | d6 c2 B8 | G4 A2 B2 d6 c2 | %7
 B4 G4 F8 | e4 e4 d4 B4 | d6 c2 B8 | A6 G2 F4 B4 | G6 A2 B8 | B8 B8 |] %13
V:2
 D4 E4 D4 G4 | F6 E2 D8 | F4 E4 D4 F4 | =E4 E4 F8 | F4 F4 G4 G4 | D6 D2 D8 | =E4 E4 F4 _E4 | %7
 D4 =E4 =F8 | F4 F4 F4 G4 | ^F6 F2 G8 | C4 ^C4 D4 F4 | F4 E4 D8 | E8 D8 |] %13
V:3
 F,4 G,4 F,4 B,4 | B,4 A,4 B,8 | B,4 B,4 B,4 B,4 | B,4 B,4 A,8 | B,4 B,4 B,4 B,4 | A,6 A,2 B,8 | %6
 C4 C4 F,4 ^F,4 | G,4 B,4 A,8 | C4 C4 B,4 B,4 | A,6 A,2 B,8 | B,6 B,2 B,4 D4 | D4 C4 B,8 | %12
 G,8 F,8 |] %13
V:4
 B,,4 B,,4 B,,4 B,,4 | F,6 F,2 B,,8 | D,4 E,4 B,,4 D,4 | G,4 C,4 F,8 | D,4 D,4 E,4 G,4 | %5
 ^F,6 F,2 G,8 | C,4 B,,4 A,,6 A,,2 | B,,4 C,4 F,8 | F,4 A,4 _B,4 G,4 | D,6 D,2 G,8 | %10
 =E,6 E,2 F,4 F,4 | F,6 F,2 B,,8 | E,8 B,,8 |] %13

